care/src/image/Group.svg

<svg width="67" height="96" viewBox="0 0 67 96" fill="none" xmlns="http://www.w3.org/2000/svg">
<path d="M66.6 4.31029V90.7055C66.6 93.0896 64.7521 95.0158 62.465 95.0158H4.13505C1.8479 95 0 93.0738 0 90.7055V4.31029C0 1.92621 1.8479 0 4.13505 0H62.4801C64.7521 0 66.6 1.92621 66.6 4.31029Z" fill="url(#paint0_linear_1_240)"/>
<path d="M62.3574 7.94666V87.0533C62.3574 89.2363 60.7337 91 58.724 91H7.47081C5.46114 90.9855 3.83743 89.2218 3.83743 87.0533V7.94666C3.83743 5.76371 5.46114 4 7.47081 4H58.7373C60.7337 4 62.3574 5.76371 62.3574 7.94666Z" fill="url(#paint1_linear_1_240)"/>
<path d="M25.7797 18.2516V22.183C25.7797 22.4672 25.5676 22.6882 25.295 22.6882H20.6753C20.4026 22.6882 20.1906 22.9093 20.1906 23.1935V28.009C20.1906 28.2932 19.9785 28.5142 19.7059 28.5142H15.9343C15.6617 28.5142 15.4497 28.2932 15.4497 28.009V23.1935C15.4497 22.9093 15.2376 22.6882 14.965 22.6882H10.3604C10.0877 22.6882 9.87567 22.4672 9.87567 22.183V18.2516C9.87567 17.9674 10.0877 17.7464 10.3604 17.7464H14.9801C15.2527 17.7464 15.4648 17.5254 15.4648 17.2412V12.4256C15.4648 12.1415 15.6769 11.9204 15.9495 11.9204H19.721C19.9937 11.9204 20.2057 12.1415 20.2057 12.4256V17.2412C20.2057 17.5254 20.4178 17.7464 20.6904 17.7464H25.295C25.5676 17.7464 25.7797 17.9674 25.7797 18.2516Z" fill="url(#paint2_linear_1_240)"/>
<path opacity="0.5" d="M56.1943 39.6768H10.4058C10.1029 39.6768 9.86053 39.4242 9.86053 39.1084V37.2927C9.86053 36.9769 10.1029 36.7243 10.4058 36.7243H56.1943C56.4972 36.7243 56.7395 36.9769 56.7395 37.2927V39.1084C56.7244 39.4242 56.4972 39.6768 56.1943 39.6768Z" fill="url(#paint3_linear_1_240)"/>
<path d="M56.1942 17.0517H33.4742C33.1713 17.0517 32.9289 16.7991 32.9289 16.4833V14.6834C32.9289 14.3676 33.1713 14.115 33.4742 14.115H56.1942C56.4972 14.115 56.7395 14.3676 56.7395 14.6834V16.4991C56.7244 16.7991 56.4972 17.0517 56.1942 17.0517Z" fill="url(#paint4_linear_1_240)"/>
<path opacity="0.5" d="M49.4691 24.7249H33.4742C33.1713 24.7249 32.9289 24.4723 32.9289 24.1565V22.3408C32.9289 22.0251 33.1713 21.7725 33.4742 21.7725H49.4691C49.772 21.7725 50.0144 22.0251 50.0144 22.3408V24.1565C49.9992 24.4723 49.772 24.7249 49.4691 24.7249Z" fill="url(#paint5_linear_1_240)"/>
<path opacity="0.5" d="M56.1943 48.2973H10.4058C10.1029 48.2973 9.86053 48.0447 9.86053 47.729V45.9133C9.86053 45.5975 10.1029 45.3449 10.4058 45.3449H56.1943C56.4972 45.3449 56.7395 45.5975 56.7395 45.9133V47.729C56.7244 48.0447 56.4972 48.2973 56.1943 48.2973Z" fill="url(#paint6_linear_1_240)"/>
<path opacity="0.5" d="M56.1943 56.9179H10.4058C10.1029 56.9179 9.86053 56.6653 9.86053 56.3495V54.5338C9.86053 54.2181 10.1029 53.9655 10.4058 53.9655H56.1943C56.4972 53.9655 56.7395 54.2181 56.7395 54.5338V56.3653C56.7244 56.6653 56.4972 56.9179 56.1943 56.9179Z" fill="url(#paint7_linear_1_240)"/>
<path opacity="0.5" d="M56.1943 65.5543H10.4058C10.1029 65.5543 9.86053 65.3017 9.86053 64.9859V63.1702C9.86053 62.8544 10.1029 62.6018 10.4058 62.6018H56.1943C56.4972 62.6018 56.7395 62.8544 56.7395 63.1702V64.9859C56.7244 65.3017 56.4972 65.5543 56.1943 65.5543Z" fill="url(#paint8_linear_1_240)"/>
<path opacity="0.5" d="M56.1943 74.1749H10.4058C10.1029 74.1749 9.86053 73.9223 9.86053 73.6065V71.7908C9.86053 71.475 10.1029 71.2224 10.4058 71.2224H56.1943C56.4972 71.2224 56.7395 71.475 56.7395 71.7908V73.6065C56.7244 73.9223 56.4972 74.1749 56.1943 74.1749Z" fill="url(#paint9_linear_1_240)"/>
<path opacity="0.5" d="M56.1943 82.7954H10.4058C10.1029 82.7954 9.86053 82.5428 9.86053 82.227V80.4113C9.86053 80.0956 10.1029 79.843 10.4058 79.843H56.1943C56.4972 79.843 56.7395 80.0956 56.7395 80.4113V82.227C56.7244 82.5428 56.4972 82.7954 56.1943 82.7954Z" fill="url(#paint10_linear_1_240)"/>
<path opacity="0.1" d="M66.6 4.31029V90.7055C66.6 93.0896 64.7521 95.0158 62.465 95.0158H4.13505C1.8479 95 0 93.0738 0 90.7055V89.2056C35.5796 73.8906 52.1501 15.1571 55.8913 0H62.465C64.7521 0 66.6 1.92621 66.6 4.31029Z" fill="#1A6FB5" fill-opacity="0.4"/>
<defs>
<linearGradient id="paint0_linear_1_240" x1="91.1376" y1="126" x2="-10.8668" y2="-1.40828" gradientUnits="userSpaceOnUse">
<stop offset="0.3061" stop-color="#6888C8"/>
<stop offset="1" stop-color="#69B8FC"/>
</linearGradient>
<linearGradient id="paint1_linear_1_240" x1="8.27353" y1="7.04564" x2="58.2692" y2="76.0861" gradientUnits="userSpaceOnUse">
<stop offset="0.3061" stop-color="white"/>
<stop offset="1" stop-color="white"/>
</linearGradient>
<linearGradient id="paint2_linear_1_240" x1="9.59347" y1="9.50003" x2="24.8687" y2="33.4352" gradientUnits="userSpaceOnUse">
<stop stop-color="#B0F4FF"/>
<stop offset="0.368525" stop-color="#80E4FD"/>
<stop offset="1" stop-color="#6CDDFC"/>
</linearGradient>
<linearGradient id="paint3_linear_1_240" x1="9.87223" y1="38.2072" x2="56.7313" y2="38.2072" gradientUnits="userSpaceOnUse">
<stop stop-color="#6CBCFC"/>
<stop offset="1" stop-color="#458DFC"/>
</linearGradient>
<linearGradient id="paint4_linear_1_240" x1="32.9293" y1="15.5844" x2="56.7313" y2="15.5844" gradientUnits="userSpaceOnUse">
<stop stop-color="#6CBCFC"/>
<stop offset="1" stop-color="#458DFC"/>
</linearGradient>
<linearGradient id="paint5_linear_1_240" x1="32.9293" y1="23.2616" x2="50.0064" y2="23.2616" gradientUnits="userSpaceOnUse">
<stop stop-color="#6CBCFC"/>
<stop offset="1" stop-color="#458DFC"/>
</linearGradient>
<linearGradient id="paint6_linear_1_240" x1="9.87223" y1="46.8317" x2="56.7313" y2="46.8317" gradientUnits="userSpaceOnUse">
<stop stop-color="#6CBCFC"/>
<stop offset="1" stop-color="#458DFC"/>
</linearGradient>
<linearGradient id="paint7_linear_1_240" x1="9.87223" y1="55.4562" x2="56.7313" y2="55.4562" gradientUnits="userSpaceOnUse">
<stop stop-color="#6CBCFC"/>
<stop offset="1" stop-color="#458DFC"/>
</linearGradient>
<linearGradient id="paint8_linear_1_240" x1="9.87223" y1="64.0807" x2="56.7313" y2="64.0807" gradientUnits="userSpaceOnUse">
<stop stop-color="#6CBCFC"/>
<stop offset="1" stop-color="#458DFC"/>
</linearGradient>
<linearGradient id="paint9_linear_1_240" x1="9.87223" y1="72.7052" x2="56.7313" y2="72.7052" gradientUnits="userSpaceOnUse">
<stop stop-color="#6CBCFC"/>
<stop offset="1" stop-color="#458DFC"/>
</linearGradient>
<linearGradient id="paint10_linear_1_240" x1="9.87223" y1="81.3296" x2="56.7313" y2="81.3296" gradientUnits="userSpaceOnUse">
<stop stop-color="#6CBCFC"/>
<stop offset="1" stop-color="#458DFC"/>
</linearGradient>
</defs>
</svg>

<svg width="67" height="96" fill="none" xmlns="http://www.w3.org/2000/svg"><path d="M66.6 4.31v86.396c0 2.384-1.848 4.31-4.135 4.31H4.135C1.848 95 0 93.074 0 90.706V4.31C0 1.926 1.848 0 4.135 0H62.48c2.272 0 4.12 1.926 4.12 4.31z" fill="url(#a)"/><path d="M62.357 7.947v79.106c0 2.183-1.623 3.947-3.633 3.947H7.471c-2.01-.014-3.634-1.778-3.634-3.947V7.947C3.837 5.764 5.461 4 7.471 4h51.266c1.997 0 3.62 1.764 3.62 3.947z" fill="url(#b)"/><path d="M25.78 18.252v3.931a.489.489 0 0 1-.485.505h-4.62a.489.489 0 0 0-.484.506v4.815a.489.489 0 0 1-.485.505h-3.772a.489.489 0 0 1-.484-.505v-4.816a.489.489 0 0 0-.485-.505H10.36a.489.489 0 0 1-.484-.505v-3.931c0-.285.212-.506.484-.506h4.62a.489.489 0 0 0 .485-.505v-4.815c0-.284.212-.506.485-.506h3.771c.273 0 .485.222.485.506v4.815c0 .284.212.505.484.505h4.605c.273 0 .485.221.485.506z" fill="url(#c)"/><path opacity=".5" d="M56.194 39.677H10.406a.555.555 0 0 1-.545-.569v-1.815c0-.316.242-.569.545-.569h45.788c.303 0 .545.253.545.569v1.815c-.015.316-.242.569-.545.569z" fill="url(#d)"/><path d="M56.194 17.052h-22.72a.555.555 0 0 1-.545-.569v-1.8c0-.315.242-.568.545-.568h22.72c.303 0 .545.253.545.568V16.5c-.015.3-.242.553-.545.553z" fill="url(#e)"/><path opacity=".5" d="M49.47 24.725H33.473a.555.555 0 0 1-.545-.569v-1.815c0-.316.242-.569.545-.569H49.47c.303 0 .545.253.545.569v1.816c-.015.315-.242.568-.545.568z" fill="url(#f)"/><path opacity=".5" d="M56.194 48.297H10.406a.555.555 0 0 1-.545-.568v-1.816c0-.316.242-.568.545-.568h45.788c.303 0 .545.252.545.568v1.816c-.015.316-.242.568-.545.568z" fill="url(#g)"/><path opacity=".5" d="M56.194 56.918H10.406a.555.555 0 0 1-.545-.569v-1.815c0-.316.242-.569.545-.569h45.788c.303 0 .545.253.545.569v1.831c-.015.3-.242.553-.545.553z" fill="url(#h)"/><path opacity=".5" d="M56.194 65.554H10.406a.555.555 0 0 1-.545-.568V63.17c0-.316.242-.568.545-.568h45.788c.303 0 .545.252.545.568v1.816c-.015.316-.242.568-.545.568z" fill="url(#i)"/><path opacity=".5" d="M56.194 74.175H10.406a.555.555 0 0 1-.545-.569v-1.815c0-.316.242-.569.545-.569h45.788c.303 0 .545.253.545.569v1.816c-.015.315-.242.568-.545.568z" fill="url(#j)"/><path opacity=".5" d="M56.194 82.795H10.406a.555.555 0 0 1-.545-.568v-1.816c0-.315.242-.568.545-.568h45.788c.303 0 .545.253.545.568v1.816c-.015.316-.242.568-.545.568z" fill="url(#k)"/><path opacity=".1" d="M66.6 4.31v86.396c0 2.384-1.848 4.31-4.135 4.31H4.135C1.848 95 0 93.074 0 90.706v-1.5C35.58 73.89 52.15 15.157 55.891 0h6.574C64.752 0 66.6 1.926 66.6 4.31z" fill="#1A6FB5" fill-opacity=".4"/><defs><linearGradient id="f" x1="32.929" y1="23.262" x2="50.006" y2="23.262" gradientUnits="userSpaceOnUse"><stop stop-color="#6CBCFC"/><stop offset="1" stop-color="#458DFC"/></linearGradient><linearGradient id="a" x1="91.138" y1="126" x2="-10.867" y2="-1.408" gradientUnits="userSpaceOnUse"><stop offset=".306" stop-color="#6888C8"/><stop offset="1" stop-color="#69B8FC"/></linearGradient><linearGradient id="c" x1="9.593" y1="9.5" x2="24.869" y2="33.435" gradientUnits="userSpaceOnUse"><stop stop-color="#B0F4FF"/><stop offset=".369" stop-color="#80E4FD"/><stop offset="1" stop-color="#6CDDFC"/></linearGradient><linearGradient id="d" x1="9.872" y1="38.207" x2="56.731" y2="38.207" gradientUnits="userSpaceOnUse"><stop stop-color="#6CBCFC"/><stop offset="1" stop-color="#458DFC"/></linearGradient><linearGradient id="e" x1="32.929" y1="15.584" x2="56.731" y2="15.584" gradientUnits="userSpaceOnUse"><stop stop-color="#6CBCFC"/><stop offset="1" stop-color="#458DFC"/></linearGradient><linearGradient id="b" x1="8.274" y1="7.046" x2="58.269" y2="76.086" gradientUnits="userSpaceOnUse"><stop offset=".306" stop-color="#fff"/><stop offset="1" stop-color="#fff"/></linearGradient><linearGradient id="g" x1="9.872" y1="46.832" x2="56.731" y2="46.832" gradientUnits="userSpaceOnUse"><stop stop-color="#6CBCFC"/><stop offset="1" stop-color="#458DFC"/></linearGradient><linearGradient id="h" x1="9.872" y1="55.456" x2="56.731" y2="55.456" gradientUnits="userSpaceOnUse"><stop stop-color="#6CBCFC"/><stop offset="1" stop-color="#458DFC"/></linearGradient><linearGradient id="i" x1="9.872" y1="64.081" x2="56.731" y2="64.081" gradientUnits="userSpaceOnUse"><stop stop-color="#6CBCFC"/><stop offset="1" stop-color="#458DFC"/></linearGradient><linearGradient id="j" x1="9.872" y1="72.705" x2="56.731" y2="72.705" gradientUnits="userSpaceOnUse"><stop stop-color="#6CBCFC"/><stop offset="1" stop-color="#458DFC"/></linearGradient><linearGradient id="k" x1="9.872" y1="81.33" x2="56.731" y2="81.33" gradientUnits="userSpaceOnUse"><stop stop-color="#6CBCFC"/><stop offset="1" stop-color="#458DFC"/></linearGradient></defs></svg>
